X:1
T: The Pogo Stick
C:
R:Jig
Q:180
K:G
M:6/8
L:1/16
d2|:B3cd2 G4g2|f3eg2 g6|D2E2F2 G2A2B2|c3Bc2 d4c2|
B3cd2 G4g2|f3ef2 g2a2b2|c'2b2c'2 d2e2f2|1g6g4d2:|2g6g4b2|
a2f2d2 d2e2f2|g2d2B2 G6|c2a2c2 B2g2B2|A2F2D2 D4b2|
a2f2d2 d2e2f2|g2d2B2 G2A2B2|c2d2e2 f2e2f2|g6g4b2|
a2f2d2 d2e2f2|g2d2B2 G6|c2a2c2 B2g2B2|A2F2D2 D4c2|
B3cd2 G4g2|f3ef2 g2a2b2|c'2b2c'2 d2e2f2|g6g4||
